X:1
T:Jesus Is Risen!
T:George Crawford Hugg
T:Jesus Is Risen!
T:Public Domain
T:Public Domain
C:George Crawford Hugg
Z:Public Domain
%%score ( 1 2 ) ( 3 4 )
L:1/8
M:9/8
K:Eb
V:1 treble 
V:2 treble 
V:3 bass 
V:4 bass 
V:1
 EGB | [Ge]3 [GB]3 [EG][GB][Ge] | [Ae]3 [Ad]3 [DF][EG][FA] | [Ac]3 [GB]2 [GB] ([FA][EG])[DF] | %4
w: 1.~Je- sus is|out the sto- ry, Chime|all ye bells, let the|tid- ings ring; Sing * ye|
w: 2.~Je- sus is|more He liv- eth, Hail|to our Sav- ior, Re-|deemer and Lord; Our * In-|
w: 3.~Je- sus is|out tri- umph- ant, Glad|bells of Eas- ter the|glori- ous strain, Out * of|
 ([FA]3 [EG]3) EGB | [Ge]3 [GB]3 [EG][GB][Ge] | [Af]3 [Ac]3 [^Fe][Fd][Fc] | %7
w: glad * voic- es, hail|tor, Death He hath van-|quished, all hail to the|
w: ter- * cess- or, ev-|er, O’er us He keep-|eth love’s wa- tch and|
w: death’s * dark- ness in-|ry, Je- sus is ris-|en, al- might- y to|
 [GB]3 [Ge]2 [EG] [GB][FA][DF] | E6 ||"^Refrain" GFE | [B,D]3 [Dc]3 [Dc][DB][DA] | %11
w: King. * * * * *||||
w: ward. Je- sus is ris- en!|peal|the sto- ry,|news o- ver land and|
w: reign. * * * * *||||
 (DEF) [EG]3 Bcd | [Ge]3 [GB]2 [EG] [Ec]2 [EF] | [DF]6 [EG][EF]E | [EB]3 [EG]2 [GB] [Ge][Ad][Be] | %15
w: ||||
w: sea; * * Je- sus is ris-|al- might- y, Join in|the song of the|ju- bi- lee. * * *|
w: ||||
 [Af]3 [Ac]3 [^Fe][Fd][Fc] | [GB]3 [Ge]2 [EG] [GB][FA][DF] | E6 |] %18
w: |||
w: |||
w: |||
V:2
 EGB | x9 | x9 | x9 | x6 EGB | x9 | x9 | x9 | E6 || GFE | x9 | A3 x2 B cd x | x9 | x8 E | x9 | x9 | %16
w: ris- en! peal||||Him the Vic-||||||||||||
w: ris- en! once||||er and ev-||||out|Send the glad||en, tri- umph- ant,||great|||
w: ris- en! chime||||to God’s glo-||||||||||||
 x9 | E6 |] %18
w: ||
w: ||
w: ||
V:3
 E,G,B, | [E,E]3 [E,E]3 [E,B,][E,E][E,E] | [F,B,]3 B,3 [B,,B,][B,,B,][B,,B,] | %3
 [B,,B,]3 [B,,B,]2 [B,,B,] ([B,,B,][B,,B,])[B,,B,] | (B,,C,D, E,3) E,G,B, | %5
 [E,E]3 [E,E]3 [E,B,][E,E][E,E] | [A,C]3 [A,E]3 [=A,E][A,E][A,E] | %7
 [B,E]3 B,2 [B,,B,] [B,,B,][B,,B,][B,,A,] | [E,G,]6 || G,F,E, | %10
 [B,,A,]3 [B,,A,]3 [B,,A,][B,,G,][B,,F,] | (B,,C,D,) [E,B,]3 B,CD | %12
 [E,E]3 [E,E]2 [E,B,] [C,=A,]2 [C,A,] | [B,,B,]6 [E,B,][E,A,][E,G,] | %14
 [E,G,]3 [E,B,]2 [E,B,] [E,B,][F,B,][G,B,] | [A,C]3 [A,E]3 [=A,E][A,E][A,E] | %16
 [B,E]3 B,2 [B,,B,] [B,,B,][B,,B,][B,,A,] | [E,G,]6 |] %18
V:4
 E,G,B, | x9 | x3 B,3 x3 | x9 | B,6 E,G,B, | x9 | x9 | x3 B,2 x4 | x6 || G,F,E, | x9 | %11
 B,3 x2 B, CD x | x9 | x9 | x9 | x9 | x3 B,2 x4 | x6 |] %18

